assets/images/message.svg

<svg width="27" height="28" viewBox="0 0 27 28" fill="none" xmlns="http://www.w3.org/2000/svg">
<path d="M20.0356 0.0810547C22.1854 0.0811722 23.9718 0.619862 25.2144 1.85938C26.4571 3.09935 26.9975 4.88243 26.9976 7.02832V12.0439C26.9975 14.0199 26.5436 15.6863 25.5015 16.9072C24.5964 17.9675 23.336 18.5869 21.8179 18.8408C21.5622 20.3607 20.9381 21.6184 19.8735 22.5195C18.6485 23.5564 16.9799 24.0059 15.0073 24.0059H14.5044C14.4975 24.0059 14.4872 24.0081 14.4761 24.0137C14.4648 24.0193 14.4573 24.0264 14.4536 24.0312L12.9458 26.0371L12.9448 26.0361C12.4619 26.6806 11.7628 27.081 10.9858 27.0811C10.2087 27.081 9.50884 26.6808 9.02588 26.0361V26.0371L7.53662 24.0566C7.52594 24.0485 7.50865 24.0374 7.48682 24.0264C7.46534 24.0155 7.44717 24.0091 7.43604 24.0059H6.96436C4.94471 24.0059 3.11833 23.7731 1.83154 22.6523C0.512401 21.5033 0.00153551 19.6474 0.00146484 17.0586V12.043C0.0015307 10.0726 0.45623 8.40651 1.49756 7.18457C2.4016 6.12399 3.66026 5.50014 5.17822 5.24512C5.43434 3.72981 6.06125 2.47401 7.12451 1.57227C8.34891 0.533952 10.0176 0.0810687 11.9917 0.0810547H20.0356ZM11.9917 1.96582C10.2839 1.96583 9.11184 2.35901 8.34424 3.00977C7.78405 3.48484 7.36512 4.16052 7.1333 5.0957H15.0083C15.6801 5.09573 16.3164 5.14765 16.9116 5.25781C17.3877 5.34591 17.8375 5.47151 18.2583 5.63574C18.9951 5.92335 19.6433 6.33165 20.187 6.87402C20.3252 7.01193 20.4536 7.1575 20.5747 7.30859C21.066 7.92178 21.4196 8.64047 21.647 9.4502C21.8676 10.2352 21.9712 11.105 21.9712 12.0439V16.8877C22.9122 16.6571 23.5914 16.2417 24.0679 15.6836C24.719 14.9207 25.1127 13.7533 25.1128 12.0439V7.02832C25.1127 5.17575 24.6477 3.95607 23.8833 3.19336C23.1183 2.43033 21.8943 1.96594 20.0356 1.96582H11.9917ZM6.59424 13.8701C5.90024 13.8701 5.33758 14.433 5.3374 15.127C5.3374 15.8211 5.90012 16.3838 6.59424 16.3838H6.60596C7.29983 16.3835 7.86279 15.8209 7.86279 15.127C7.86261 14.4332 7.29972 13.8704 6.60596 13.8701H6.59424ZM10.9937 13.8701C10.2996 13.8701 9.73698 14.433 9.73682 15.127C9.73687 15.821 10.2996 16.3838 10.9937 16.3838H11.0044C11.6983 16.3836 12.2612 15.8209 12.2612 15.127C12.2611 14.4331 11.6983 13.8703 11.0044 13.8701H10.9937ZM15.3921 13.8701C14.6981 13.8701 14.1354 14.433 14.1353 15.127C14.1353 15.821 14.698 16.3838 15.3921 16.3838H15.4028C16.0968 16.3837 16.6596 15.821 16.6597 15.127C16.6595 14.433 16.0968 13.8702 15.4028 13.8701H15.3921Z" fill="#EF3124"/>
</svg>

<svg xmlns="http://www.w3.org/2000/svg" width="27" height="28" fill="none"><path fill="#EF3124" d="M20.036.081c2.15 0 3.936.539 5.178 1.778 1.243 1.24 1.784 3.023 1.784 5.17v5.015c0 1.976-.454 3.642-1.497 4.863-.905 1.06-2.165 1.68-3.683 1.934-.256 1.52-.88 2.777-1.945 3.678-1.225 1.037-2.893 1.487-4.866 1.487h-.503a.1.1 0 0 0-.028.008.1.1 0 0 0-.022.017l-1.508 2.006h-.001c-.483.644-1.182 1.044-1.96 1.044-.776 0-1.476-.4-1.96-1.045v.001l-1.488-1.98a.3.3 0 0 0-.101-.051h-.472c-2.02 0-3.846-.233-5.132-1.354-1.32-1.149-1.83-3.005-1.83-5.593v-5.016c0-1.97.454-3.636 1.496-4.858.904-1.061 2.162-1.685 3.68-1.94.256-1.515.883-2.771 1.947-3.673C8.349.534 10.018.082 11.992.082zm-8.044 1.885c-1.708 0-2.88.393-3.648 1.044-.56.475-.979 1.15-1.21 2.086h7.874q1.009-.002 1.904.162.714.132 1.346.378a5.55 5.55 0 0 1 1.929 1.238q.207.208.388.435c.491.613.845 1.331 1.072 2.141.22.785.324 1.655.324 2.594v4.844c.941-.23 1.62-.646 2.097-1.204.651-.763 1.045-1.93 1.045-3.64V7.028c0-1.852-.465-3.072-1.23-3.835s-1.989-1.227-3.847-1.227zM6.594 13.87a1.257 1.257 0 0 0 0 2.514h.012a1.257 1.257 0 0 0 0-2.514zm4.4 0a1.257 1.257 0 0 0 0 2.514h.01a1.257 1.257 0 0 0 0-2.514zm4.398 0a1.257 1.257 0 0 0 0 2.514h.01a1.257 1.257 0 0 0 0-2.514z"/></svg>
